wilib/img/svg/exemplo.svg

<svg xmlns="http://www.w3.org/2000/svg" xmlns:xlink="http://www.w3.org/1999/xlink" preserveAspectRatio="none" width="59" height="59" viewBox="0 0 59 59"><defs><linearGradient id="a" gradientUnits="userSpaceOnUse" x1="-.75" y1="-23.75" x2="-.75" y2="22.25"><stop offset="0%" stop-color="#F72B72" stop-opacity=".4"/><stop offset="100%" stop-color="#FFF" stop-opacity=".4"/></linearGradient><linearGradient id="b" gradientUnits="userSpaceOnUse" x1="-.8" y1="-6.35" x2="-.8" y2="-23.45"><stop offset="0%" stop-color="#F72B72" stop-opacity=".502"/><stop offset="100%" stop-color="#FFF" stop-opacity=".502"/></linearGradient><path fill="#E2E2E2" d="M-.05-29.4q-12.15 0-20.75 8.6T-29.4 0q0 12.15 8.6 20.8 8.6 8.6 20.75 8.6 12.2 0 20.8-8.6 8.6-8.65 8.6-20.8 0-12.2-8.6-20.8-8.6-8.6-20.8-8.6z" id="c"/><path fill="#FFF" d="M27.3-.95q0-11.6-8.2-19.8-8.2-8.2-19.8-8.2-11.6 0-19.8 8.2-8.2 8.2-8.2 19.8 0 11.6 8.2 19.8 8.2 8.2 19.8 8.2 11.6 0 19.8-8.2 8.2-8.2 8.2-19.8z" id="d"/><path fill="#F72B72" d="M24.3-.95q0-10.35-7.3-17.65-7.35-7.35-17.7-7.35t-17.65 7.35Q-25.7-11.3-25.7-.95q0 10.35 7.35 17.7 7.3 7.3 17.65 7.3 10.35 0 17.7-7.3 7.3-7.35 7.3-17.7z" id="e"/><path fill="#FFF" d="M-2.5-12.4q-.7-.7-2.25-.7h-11.2q-2.1 0-3.05 1-1 1-1 3.2V4.75q0 2.15 1 3.15.95 1 3.05 1h11.5q1.6 0 2.3-.65.75-.75.75-1.9 0-1.2-.75-1.9-.7-.65-2.3-.65h-8.5V.25h6.55q1.6 0 2.3-.7.75-.65.75-1.85 0-1.2-.75-1.9-.8-.7-2.3-.7h-6.55v-3.05h8.2q1.45 0 2.25-.7.8-.65.8-1.9 0-1.2-.8-1.85z" id="g"/><path fill="#FFF" d="M6-3.05l-1.4-2.7q-.65-1-1.15-1.35Q2.8-7.5 2-7.5q-1.1 0-2.05.85-.9.75-.9 1.75 0 .6.2 1l.6 1.15L2.15.6-.2 4Q-.9 5.25-1 5.45q-.25.45-.25 1.25 0 1 .75 1.8.65.8 2.1.8 1 0 1.55-.4.65-.35 1.2-1.45L6 4.4l1.6 3.05q.6 1.1 1.2 1.45.6.4 1.6.4 1.35 0 2.1-.8t.75-1.8q0-.65-.25-1.25-.15-.4-.85-1.45L9.85.6l2.9-4.5q.2-.6.2-1 0-1-.9-1.75-.95-.85-2.1-.85-.7 0-1.4.35Q8-6.8 7.45-5.8L6-3.05z" id="h"/><path fill="#FFF" d="M17.5 2.25q-1.4 0-2.4 1-1.05 1.05-1.05 2.4 0 1.4 1.05 2.45 1 1 2.4 1t2.4-1q1-1 1-2.45 0-1.4-1-2.4t-2.4-1z" id="i"/><path fill="url(#a)" d="M22.25-.75q0-9.55-6.75-16.3-6.7-6.7-16.25-6.7t-16.3 6.7q-6.7 6.75-6.7 16.3t6.7 16.25q6.75 6.75 16.3 6.75T15.5 15.5q6.75-6.7 6.75-16.25z" id="j"/><path fill="url(#b)" d="M11.05-9.25q4.85-2.35 4.85-5.65 0-3.35-4.85-5.65-4.9-2.35-11.8-2.35-6.95 0-11.8 2.35-4.9 2.3-4.9 5.65 0 3.3 4.9 5.65Q-7.65-6.9-.75-6.9t11.8-2.35z" id="k"/><path id="f" stroke="#D64174" stroke-linejoin="round" stroke-linecap="round" fill="none" d="M24.3-.95q0 10.35-7.3 17.7-7.35 7.3-17.7 7.3t-17.65-7.3Q-25.7 9.4-25.7-.95t7.35-17.65q7.3-7.35 17.65-7.35 10.35 0 17.7 7.35 7.3 7.3 7.3 17.65z"/><path id="l" stroke="#D64174" stroke-linejoin="round" stroke-linecap="round" fill="none" d="M15.9-14.9q0 3.3-4.85 5.65Q6.15-6.9-.75-6.9t-11.8-2.35q-4.9-2.35-4.9-5.65 0-3.35 4.9-5.65Q-7.7-22.9-.75-22.9q6.9 0 11.8 2.35 4.85 2.3 4.85 5.65z"/></defs><use xlink:href="#c" transform="translate(29.4 29.4)"/><use xlink:href="#d" transform="translate(29.4 29.4)"/><use xlink:href="#e" transform="translate(29.4 29.4)"/><use xlink:href="#f" transform="translate(29.4 29.4)"/><use xlink:href="#g" transform="translate(29.4 29.4)"/><use xlink:href="#h" transform="translate(29.4 29.4)"/><use xlink:href="#i" transform="translate(29.4 29.4)"/><use xlink:href="#j" transform="translate(29.4 29.4)"/><use xlink:href="#k" transform="translate(29.4 29.4)"/><use xlink:href="#l" transform="translate(29.4 29.4)"/></svg>

<svg xmlns="http://www.w3.org/2000/svg" version="1.1" xmlns:xlink="http://www.w3.org/1999/xlink" preserveAspectRatio="none" x="0px" y="0px" width="59px" height="59px" viewBox="0 0 59 59">
<defs>
<linearGradient id="Gradient_1" gradientUnits="userSpaceOnUse" x1="-0.75" y1="-23.75" x2="-0.75" y2="22.25" spreadMethod="pad">
<stop  offset="0%" stop-color="#F72B72" stop-opacity="0.4"/>

<stop  offset="100%" stop-color="#FFFFFF" stop-opacity="0.4"/>
</linearGradient>

<linearGradient id="Gradient_2" gradientUnits="userSpaceOnUse" x1="-0.8" y1="-6.35" x2="-0.8" y2="-23.450000000000003" spreadMethod="pad">
<stop  offset="0%" stop-color="#F72B72" stop-opacity="0.5019607843137255"/>

<stop  offset="100%" stop-color="#FFFFFF" stop-opacity="0.5019607843137255"/>
</linearGradient>

<g id="gr_ico_0_Layer0_0_MEMBER_0_MEMBER_0_FILL">
<path fill="#E2E2E2" stroke="none" d="
M -0.05 -29.4
Q -12.2 -29.4 -20.8 -20.8 -29.4 -12.2 -29.4 0 -29.4 12.15 -20.8 20.8 -12.2 29.4 -0.05 29.4 12.15 29.4 20.75 20.8 29.35 12.15 29.35 0 29.35 -12.2 20.75 -20.8 12.15 -29.4 -0.05 -29.4 Z"/>
</g>

<g id="gr_ico_0_Layer0_0_MEMBER_0_MEMBER_1_FILL">
<path fill="#FFFFFF" stroke="none" d="
M 27.3 -0.95
Q 27.3 -12.55 19.1 -20.75 10.9 -28.95 -0.7 -28.95 -12.3 -28.95 -20.5 -20.75 -28.7 -12.55 -28.7 -0.95 -28.7 10.65 -20.5 18.85 -12.3 27.05 -0.7 27.05 10.9 27.05 19.1 18.85 27.3 10.65 27.3 -0.95 Z"/>
</g>

<g id="gr_ico_0_Layer0_0_MEMBER_0_MEMBER_2_FILL">
<path fill="#F72B72" stroke="none" d="
M 24.3 -0.95
Q 24.3 -11.3 17 -18.6 9.65 -25.95 -0.7 -25.95 -11.05 -25.95 -18.35 -18.6 -25.7 -11.3 -25.7 -0.95 -25.7 9.4 -18.35 16.75 -11.05 24.05 -0.7 24.05 9.65 24.05 17 16.75 24.3 9.4 24.3 -0.95 Z"/>
</g>

<g id="gr_ico_0_Layer0_0_MEMBER_0_MEMBER_4_FILL">
<path fill="#FFFFFF" stroke="none" d="
M -2.5 -12.4
Q -3.2 -13.1 -4.75 -13.1
L -15.95 -13.1
Q -18.05 -13.1 -19 -12.1 -20 -11.1 -20 -8.9
L -20 4.75
Q -20 6.9 -19 7.9 -18.05 8.9 -15.95 8.9
L -4.45 8.9
Q -2.85 8.9 -2.15 8.25 -1.4 7.5 -1.4 6.35 -1.4 5.15 -2.15 4.45 -2.85 3.8 -4.45 3.8
L -12.95 3.8 -12.95 0.25 -6.4 0.25
Q -4.8 0.25 -4.1 -0.45 -3.35 -1.1 -3.35 -2.3 -3.35 -3.5 -4.1 -4.2 -4.9 -4.9 -6.4 -4.9
L -12.95 -4.9 -12.95 -7.95 -4.75 -7.95
Q -3.3 -7.95 -2.5 -8.65 -1.7 -9.3 -1.7 -10.55 -1.7 -11.75 -2.5 -12.4 Z"/>
</g>

<g id="gr_ico_0_Layer0_0_MEMBER_0_MEMBER_5_FILL">
<path fill="#FFFFFF" stroke="none" d="
M 6 -3.05
L 4.6 -5.75
Q 3.95 -6.75 3.45 -7.1 2.8 -7.5 2 -7.5 0.9 -7.5 -0.05 -6.65 -0.95 -5.9 -0.95 -4.9 -0.95 -4.3 -0.75 -3.9
L -0.15 -2.75 2.15 0.6 -0.2 4
Q -0.9 5.25 -1 5.45 -1.25 5.9 -1.25 6.7 -1.25 7.7 -0.5 8.5 0.15 9.3 1.6 9.3 2.6 9.3 3.15 8.9 3.8 8.55 4.35 7.45
L 6 4.4 7.6 7.45
Q 8.2 8.55 8.8 8.9 9.4 9.3 10.4 9.3 11.75 9.3 12.5 8.5 13.25 7.7 13.25 6.7 13.25 6.05 13 5.45 12.85 5.05 12.15 4
L 9.85 0.6 12.75 -3.9
Q 12.95 -4.5 12.95 -4.9 12.95 -5.9 12.05 -6.65 11.1 -7.5 9.95 -7.5 9.25 -7.5 8.55 -7.15 8 -6.8 7.45 -5.8
L 6 -3.05 Z"/>
</g>

<g id="gr_ico_0_Layer0_0_MEMBER_0_MEMBER_6_FILL">
<path fill="#FFFFFF" stroke="none" d="
M 17.5 2.25
Q 16.1 2.25 15.1 3.25 14.05 4.3 14.05 5.65 14.05 7.05 15.1 8.1 16.1 9.1 17.5 9.1 18.9 9.1 19.9 8.1 20.9 7.1 20.9 5.65 20.9 4.25 19.9 3.25 18.9 2.25 17.5 2.25 Z"/>
</g>

<g id="gr_ico_0_Layer0_0_MEMBER_1_MEMBER_0_FILL">
<path fill="url(#Gradient_1)" stroke="none" d="
M 22.25 -0.75
Q 22.25 -10.3 15.5 -17.05 8.8 -23.75 -0.75 -23.75 -10.3 -23.75 -17.05 -17.05 -23.75 -10.3 -23.75 -0.75 -23.75 8.8 -17.05 15.5 -10.3 22.25 -0.75 22.25 8.8 22.25 15.5 15.5 22.25 8.8 22.25 -0.75 Z"/>
</g>

<g id="gr_ico_0_Layer0_0_MEMBER_1_MEMBER_1_MEMBER_0_FILL">
<path fill="url(#Gradient_2)" stroke="none" d="
M 11.05 -9.25
Q 15.9 -11.6 15.9 -14.9 15.9 -18.25 11.05 -20.55 6.15 -22.9 -0.75 -22.9 -7.7 -22.9 -12.55 -20.55 -17.45 -18.25 -17.45 -14.9 -17.45 -11.6 -12.55 -9.25 -7.65 -6.9 -0.75 -6.9 6.15 -6.9 11.05 -9.25 Z"/>
</g>

<path id="gr_ico_0_Layer0_0_MEMBER_0_MEMBER_3_1_STROKES" stroke="#D64174" stroke-width="1" stroke-linejoin="round" stroke-linecap="round" fill="none" d="
M 24.3 -0.95
Q 24.3 9.4 17 16.75 9.65 24.05 -0.7 24.05 -11.05 24.05 -18.35 16.75 -25.7 9.4 -25.7 -0.95 -25.7 -11.3 -18.35 -18.6 -11.05 -25.95 -0.7 -25.95 9.65 -25.95 17 -18.6 24.3 -11.3 24.3 -0.95 Z"/>

<path id="gr_ico_0_Layer0_0_MEMBER_1_MEMBER_1_MEMBER_1_1_STROKES" stroke="#D64174" stroke-width="1" stroke-linejoin="round" stroke-linecap="round" fill="none" d="
M 15.9 -14.9
Q 15.9 -11.6 11.05 -9.25 6.15 -6.9 -0.75 -6.9 -7.65 -6.9 -12.55 -9.25 -17.45 -11.6 -17.45 -14.9 -17.45 -18.25 -12.55 -20.55 -7.7 -22.9 -0.75 -22.9 6.15 -22.9 11.05 -20.55 15.9 -18.25 15.9 -14.9 Z"/>
</defs>

<g transform="matrix( 1, 0, 0, 1, 29.4,29.4) ">
<g transform="matrix( 1, 0, 0, 1, 0,0) ">
<use xlink:href="#gr_ico_0_Layer0_0_MEMBER_0_MEMBER_0_FILL"/>
</g>

<g transform="matrix( 1, 0, 0, 1, 0,0) ">
<use xlink:href="#gr_ico_0_Layer0_0_MEMBER_0_MEMBER_1_FILL"/>
</g>

<g transform="matrix( 1, 0, 0, 1, 0,0) ">
<use xlink:href="#gr_ico_0_Layer0_0_MEMBER_0_MEMBER_2_FILL"/>
</g>

<g transform="matrix( 1, 0, 0, 1, 0,0) ">
<use xlink:href="#gr_ico_0_Layer0_0_MEMBER_0_MEMBER_3_1_STROKES"/>
</g>

<g transform="matrix( 1, 0, 0, 1, 0,0) ">
<use xlink:href="#gr_ico_0_Layer0_0_MEMBER_0_MEMBER_4_FILL"/>
</g>

<g transform="matrix( 1, 0, 0, 1, 0,0) ">
<use xlink:href="#gr_ico_0_Layer0_0_MEMBER_0_MEMBER_5_FILL"/>
</g>

<g transform="matrix( 1, 0, 0, 1, 0,0) ">
<use xlink:href="#gr_ico_0_Layer0_0_MEMBER_0_MEMBER_6_FILL"/>
</g>

<g transform="matrix( 1, 0, 0, 1, 0,0) ">
<use xlink:href="#gr_ico_0_Layer0_0_MEMBER_1_MEMBER_0_FILL"/>
</g>

<g transform="matrix( 1, 0, 0, 1, 0,0) ">
<use xlink:href="#gr_ico_0_Layer0_0_MEMBER_1_MEMBER_1_MEMBER_0_FILL"/>
</g>

<g transform="matrix( 1, 0, 0, 1, 0,0) ">
<use xlink:href="#gr_ico_0_Layer0_0_MEMBER_1_MEMBER_1_MEMBER_1_1_STROKES"/>
</g>
</g>
</svg>
